src/assets/images/components/page/PageHeader/menu-dropdown-help-icon-help.svg

<svg fill="none" height="28" viewBox="0 0 28 28" width="28" xmlns="http://www.w3.org/2000/svg"><path d="m14.1188 18.3261c-2.3444 0-4.22108-1.8863-4.22108-4.2169 0-2.3369 1.87668-4.22318 4.22108-4.22318 2.3328 0 4.2094 1.88628 4.2094 4.22318 0 2.3306-1.8745 4.2169-4.2094 4.2169zm-8.12458-9.95508c.63351-.93445 1.42218-1.73694 2.34702-2.37257l2.34566 2.34774c-.95675.57398-1.7923 1.39241-2.35667 2.36081zm16.22578.00961-2.3499 2.33607c-.5547-.96849-1.3882-1.78692-2.347-2.3609l2.3478-2.34774c.9248.63563 1.7135 1.44773 2.3491 2.37257zm0 11.43377c-.626.9248-1.4243 1.739-2.3395 2.3747l-2.3574-2.3499c.9685-.574 1.7923-1.3903 2.3567-2.3608zm-16.21618.0096 2.33602-2.336c.56437.9705 1.39031 1.7868 2.34706 2.3608l-2.34566 2.3499c-.91523-.6357-1.71351-1.4403-2.33742-2.3747zm8.10118 6.4061c6.6319 0 12.1071-5.4752 12.1071-12.1071 0-6.62009-5.4848-12.10493-12.1167-12.10493-6.62017 0-12.0954 5.48484-12.0954 12.10493 0 6.6319 5.48484 12.1071 12.105 12.1071z" fill="#000"/></svg>

<svg width="28" height="28" viewBox="0 0 28 28" fill="none" xmlns="http://www.w3.org/2000/svg">
<path d="M14.1188 18.3261C11.7744 18.3261 9.89772 16.4398 9.89772 14.1092C9.89772 11.7723 11.7744 9.88602 14.1188 9.88602C16.4516 9.88602 18.3282 11.7723 18.3282 14.1092C18.3282 16.4398 16.4537 18.3261 14.1188 18.3261ZM5.99422 8.37102C6.62773 7.43657 7.4164 6.63408 8.34124 5.99845L10.6869 8.34619C9.73015 8.92017 8.8946 9.7386 8.33023 10.707L5.99422 8.37102ZM22.22 8.38063L19.8701 10.7167C19.3154 9.74821 18.4819 8.92978 17.5231 8.3558L19.8709 6.00806C20.7957 6.64369 21.5844 7.45579 22.22 8.38063ZM22.22 19.8144C21.594 20.7392 20.7957 21.5534 19.8805 22.1891L17.5231 19.8392C18.4916 19.2652 19.3154 18.4489 19.8798 17.4784L22.22 19.8144ZM6.00382 19.824L8.33984 17.488C8.90421 18.4585 9.73015 19.2748 10.6869 19.8488L8.34124 22.1987C7.42601 21.563 6.62773 20.7584 6.00382 19.824ZM14.105 26.2301C20.7369 26.2301 26.2121 20.7549 26.2121 14.123C26.2121 7.50291 20.7273 2.01807 14.0954 2.01807C7.47523 2.01807 2 7.50291 2 14.123C2 20.7549 7.48484 26.2301 14.105 26.2301Z" fill="black"/>
</svg>
